**kern	**kern	**dynam
*part1	*part1	*part1
*staff2	*staff1	*
*I"Piano	*	*
*clefF4	*clefG2	*
*k[b-e-a-]	*k[b-e-a-]	*
*M2/4	*M2/4	*
=1	=1	=1
8r	(8b-	p
=	=	=
(8A-L	4cc	.
8e-	.	.
8G	8b-L	.
8e-J	8ccJ	.
=	=	=
8FL	8b-L	.
8B-	8a-	.
8E-	8g	.
8B-J	8a-J	.
=	=	=
8A-L	8gL	.
8B-	8f	.
8G	8e-	.
8E-J)	8gJ)	.
=	=	=
8BB-L	(4g	.
(8B-	.	.
8d	8fL)	.
8B-J)	8fJ	.
*clefG2	*	*
=	=	=
(8e-L	(4g	.
8c	.	.
8f	4an	.
8e-J	.	.
=	=	=
8dL	4.b-	.
8f	.	.
8a-	.	.
8gJ)	8bn)	.
=	=	=
(8a-L	(4cc	.
8f	.	.
8b-	4dd	.
8a-J	.	.
=	=	=
8gL	4ee-	.
8f	.	.
8g	8b-XL	.
8e-J)	8ccJ)	.
=	=	=
*-	*-	*-
!!!system-decoration: {(s1,s2)}
